X: 2
T: Do It Fair
Z: GoPlayer
S: https://thesession.org/tunes/268#setting52517
R: slip jig
M: 9/8
L: 1/8
K: Dmaj
M:3/4
|: FA (A/B/A) B2 | Be2d (c/B/A)|FA (A/B/A) B2 |Ad2A (F/E/D):|
~f2fd fa | be2d (c/B/A) | f2fd fa |Ad2A (F/E/D)|
~f2fd fa | be2d (c/B/A) | (f/g/f) (e/f/e) d2 |Ad2A (F/E/D)||

%-------------------- TUNE SEPARATOR --------------------%

